X: 60
T: the Maid Behind the Bar
R: reel
Z: 2012 John Chambers <jc@trillian.mit.edu>
B: "100 Essential Irish Session Tunes" 1995 Dave Mallinson, ed.
M: 4/4
L: 1/8
K: D
F |\
"D"A2AB AFED | FAAB ABde | "Bm"fBBA Bcde | "G"fdgf "A7"efdB |
"D"FAAB AFED | FAAB ABde | "Bm"fBBA "G"BcdB | "A7"AFEF "D"D3 :|
|: g |\
"D"fgab afde | fdad fddf | "Em"efga beef | gebe "A7"geeg |
"D"fgaf bfaf | "G"defd "A7"efde | "Bm"fBBA "G"BcdB | "A7"AFEF "D"D3 :|

%%sep 2 1 500
%%sep 1 1 500

